FINK
CUT[ICH BIN EIN FEINER JAEGERSKNECHT]
REG[Europa, Mitteleuropa, Deutschland]
KEY[F0647  16  F 2/4 3/4]
MEL[-5_  1_1_3_1_  5_532__
    1_-7-6-5__  5_543__
    3_.32_3_4_3_  2__.0_
    1_34  5__5__+1_6_  5_3_5_0
    5  4_2_3_55  4_2_3_
    135_31  2__1__0_ //] >>
FCT[Staende -, Jaeger - Lied]
